SVG_Azure_All/Azure AD Privileged Identity Management.svg

<?xml version="1.0" encoding="UTF-8" standalone="no"?>
<!-- Generated by Microsoft Visio, SVG Export Azure AD Privileged Identity Management.svg Page-1 -->

<svg
   xmlns:dc="http://purl.org/dc/elements/1.1/"
   xmlns:cc="http://creativecommons.org/ns#"
   xmlns:rdf="http://www.w3.org/1999/02/22-rdf-syntax-ns#"
   xmlns:svg="http://www.w3.org/2000/svg"
   xmlns="http://www.w3.org/2000/svg"
   xmlns:sodipodi="http://sodipodi.sourceforge.net/DTD/sodipodi-0.dtd"
   xmlns:inkscape="http://www.inkscape.org/namespaces/inkscape"
   width="0.7402178in"
   height="0.83556753in"
   viewBox="0 0 53.295662 60.160678"
   xml:space="preserve"
   class="st6"
   version="1.1"
   id="svg57"
   sodipodi:docname="Azure AD Privileged Identity Management.svg"
   style="font-size:12px;overflow:visible;color-interpolation-filters:sRGB;fill:none;fill-rule:evenodd;stroke-linecap:square;stroke-miterlimit:3"
   inkscape:version="0.92.5 (2060ec1f9f, 2020-04-08)"><metadata
   id="metadata61"><rdf:RDF><cc:Work
       rdf:about=""><dc:format>image/svg+xml</dc:format><dc:type
         rdf:resource="http://purl.org/dc/dcmitype/StillImage" /></cc:Work></rdf:RDF></metadata><sodipodi:namedview
   pagecolor="#ffffff"
   bordercolor="#666666"
   borderopacity="1"
   objecttolerance="10"
   gridtolerance="10"
   guidetolerance="10"
   inkscape:pageopacity="0"
   inkscape:pageshadow="2"
   inkscape:window-width="640"
   inkscape:window-height="480"
   id="namedview59"
   showgrid="false"
   inkscape:zoom="1.8134651"
   inkscape:cx="35.53124"
   inkscape:cy="24.336661"
   inkscape:window-x="0"
   inkscape:window-y="0"
   inkscape:window-maximized="0"
   inkscape:current-layer="svg57" />
	<style
   type="text/css"
   id="style2">
	<![CDATA[
		.st1 {fill:url(#grad0-6);stroke:none;stroke-width:6.89428}
		.st2 {fill:#ffffff;fill-opacity:0.8;stroke:none;stroke-width:6.89428}
		.st3 {fill:#ffffff;fill-opacity:0.9;stroke:none;stroke-width:6.89428}
		.st4 {fill:#773adc;stroke:none;stroke-width:6.89428}
		.st5 {fill:url(#grad0-18);stroke:none;stroke-width:6.89428}
		.st6 {fill:none;fill-rule:evenodd;font-size:12px;overflow:visible;stroke-linecap:square;stroke-miterlimit:3}
	]]>
	</style>

	<defs
   id="Patterns_And_Gradients">
		<linearGradient
   id="grad0-6"
   x1="0"
   y1="46.009475"
   x2="42.543573"
   y2="46.009475"
   gradientTransform="scale(0.90730576,1.1021643)"
   gradientUnits="userSpaceOnUse">
			<stop
   offset="0"
   stop-color="#773adc"
   stop-opacity="1"
   id="stop4" />
			<stop
   offset="0.4"
   stop-color="#8d58e7"
   stop-opacity="1"
   id="stop6" />
			<stop
   offset="1"
   stop-color="#a67af4"
   stop-opacity="1"
   id="stop8" />
		</linearGradient>
		<linearGradient
   id="grad0-18"
   x1="-1.0163744e-05"
   y1="116.1475"
   x2="27.554114"
   y2="116.1475"
   gradientTransform="scale(1.4218081,0.70332982)"
   gradientUnits="userSpaceOnUse">
			<stop
   offset="0"
   stop-color="#fea11b"
   stop-opacity="1"
   id="stop11" />
			<stop
   offset="0.7"
   stop-color="#ffd70f"
   stop-opacity="1"
   id="stop13" />
		</linearGradient>
	</defs>
	<g
   id="g55"
   transform="translate(-6.89428,-6.8932323)">
		<title
   id="title17">Page-1</title>
		<g
   id="group8706-1"
   transform="translate(6.89428,-34.0157)">
			<title
   id="title19">Azure AD Privileged Identity Management</title>
			<g
   id="group8707-2">
				<title
   id="title21">g14</title>
				<g
   id="shape8708-3"
   transform="translate(0,-4.20364)">
					<title
   id="title23">path2</title>
					<path
   d="m 37.04,50.71 h -13.8 v 4.7 a 2.22244,2.2156 0 0 1 -2.23,2.22 H 17.66 A 2.22244,2.2156 0 0 1 15.44,55.41 V 50.73 H 1.58 A 1.57549,1.57063 -180 0 0 0,52.3 v 43.73 a 1.57549,1.57063 -180 0 0 1.58,1.57 h 11.35 v -3.97 a 1.6023,1.59737 0 0 1 1.59,-1.59 h 2.14 v -3.07 a 1.60566,1.60071 0 0 1 1.61,-1.6 h 3.87 a 1.6023,1.59737 0 0 1 1.6,1.6 v 3.07 h 9.5 A 10.901,10.8675 0 0 1 38.6,85.86 V 52.29 a 1.57549,1.57063 -180 0 0 -1.56,-1.58 z"
   class="st1"
   id="path25"
   inkscape:connector-curvature="0"
   style="fill:url(#grad0-6);stroke:none;stroke-width:6.89427996" />
				</g>
				<g
   id="shape8709-7"
   transform="translate(10.415,-19.8339)">
					<title
   id="title28">path4</title>
					<path
   d="M 17.77,95.85 A 9.52666,9.49733 -180 0 0 11.56,87.28 4.92088,4.90573 0 0 1 6.22,87.22 8.79926,8.77216 -180 0 0 0,95.86 a 1.59225,1.58734 -180 0 0 1.42,1.74 1.2034,1.1997 -180 0 0 0.16,0 h 14.61 a 1.58219,1.57732 -180 0 0 1.59,-1.57 1.82354,1.81793 -180 0 0 -0.01,-0.18 z"
   class="st2"
   id="path30"
   inkscape:connector-curvature="0"
   style="fill:#ffffff;fill-opacity:0.8;stroke:none;stroke-width:6.89427996" />
				</g>
				<g
   id="shape8710-9"
   transform="translate(16.7169,-23.2351)">
					<title
   id="title33">path6</title>
					<path
   d="M 2.68,91.43 A 4.95105,4.9358 0 0 1 0,90.64 l 2.68,6.96 2.66,-6.91 a 4.97787,4.96254 0 0 1 -2.66,0.74 z"
   class="st3"
   id="path35"
   inkscape:connector-curvature="0"
   style="fill:#ffffff;fill-opacity:0.9;stroke:none;stroke-width:6.89427996" />
				</g>
				<g
   id="shape8711-11"
   transform="translate(14.3738,-29.4006)">
					<title
   id="title38">circle8</title>
					<ellipse
   cx="4.9879198"
   cy="92.630402"
   rx="4.9879198"
   ry="4.9725599"
   class="st2"
   id="ellipse40"
   style="fill:#ffffff;fill-opacity:0.8;stroke:none;stroke-width:6.89427996" />
				</g>
				<g
   id="shape8712-13"
   transform="translate(16.7002,-45.4512)">
					<title
   id="title43">rect10</title>
					<path
   d="m 0,96.66 a 0.948666,0.945744 -180 0 0 0.948644,0.945723 L 4.32,97.6 A 0.948666,0.945744 -180 0 0 5.268644,96.654277 L 5.27,87.31 A 0.948666,0.945744 -180 0 0 4.321356,86.364277 L 0.95,86.36 a 0.948666,0.945744 -180 0 0 -0.948644,0.945723 z"
   class="st4"
   id="path45"
   inkscape:connector-curvature="0"
   style="fill:#773adc;stroke:none;stroke-width:6.89427996" />
				</g>
				<g
   id="shape8713-15"
   transform="translate(14.119)">
					<title
   id="title48">path12</title>
					<path
   d="m 20.02,93.71 a 9.72109,9.69115 -180 1 0 10.1,-12 c -0.23,0 -0.45,-0.02 -0.67,-0.02 a 9.72109,9.69115 -180 0 0 -9.43,7.35 H 8.8 A 0.388843,0.387646 0 0 1 8.411157,88.652354 L 8.41,84.77 A 0.388843,0.387646 -180 0 0 8.021157,84.379012 L 4.15,84.38 A 0.388843,0.387646 -180 0 0 3.761157,84.770988 L 3.76,88.65 A 0.388843,0.387646 0 0 1 3.367804,89.037646 L 0.39,89.04 A 0.388843,0.387646 -180 0 0 0.001157,89.427646 L 0,93.31 a 0.388843,0.387646 -180 0 0 0.388843,0.390988 z m 9.43,-7.41 a 5.59465,5.57742 0 0 1 0.67,0.04 5.09519,5.0795 0 0 1 -0.67,10.12 4.97787,4.96254 0 0 1 -0.67,-0.05 5.09184,5.07616 0 0 1 0.67,-10.11 z"
   class="st5"
   id="path50"
   inkscape:connector-curvature="0"
   style="fill:url(#grad0-18);stroke:none;stroke-width:6.89427996" />
				</g>
			</g>
		</g>
	</g>
</svg>

<?xml version="1.0" encoding="UTF-8" standalone="no"?>
<!DOCTYPE svg PUBLIC "-//W3C//DTD SVG 1.1//EN" "http://www.w3.org/Graphics/SVG/1.1/DTD/svg11.dtd">
<!-- Generated by Microsoft Visio, SVG Export Azure AD Privileged Identity Management.svg Page-1 -->
<svg xmlns="http://www.w3.org/2000/svg" xmlns:xlink="http://www.w3.org/1999/xlink" xmlns:ev="http://www.w3.org/2001/xml-events"
		width="0.931742in" height="1.3556in" viewBox="0 0 67.0854 97.6029" xml:space="preserve" color-interpolation-filters="sRGB"
		class="st6">
	<style type="text/css">
	<![CDATA[
		.st1 {fill:url(#grad0-6);stroke:none;stroke-width:6.89428}
		.st2 {fill:#ffffff;fill-opacity:0.8;stroke:none;stroke-width:6.89428}
		.st3 {fill:#ffffff;fill-opacity:0.9;stroke:none;stroke-width:6.89428}
		.st4 {fill:#773adc;stroke:none;stroke-width:6.89428}
		.st5 {fill:url(#grad0-18);stroke:none;stroke-width:6.89428}
		.st6 {fill:none;fill-rule:evenodd;font-size:12px;overflow:visible;stroke-linecap:square;stroke-miterlimit:3}
	]]>
	</style>

	<defs id="Patterns_And_Gradients">
		<linearGradient id="grad0-6" x1="0" y1="0" x2="1" y2="0" gradientTransform="rotate(-90 0.5 0.5)">
			<stop offset="0" stop-color="#773adc" stop-opacity="1"/>
			<stop offset="0.4" stop-color="#8d58e7" stop-opacity="1"/>
			<stop offset="1" stop-color="#a67af4" stop-opacity="1"/>
		</linearGradient>
		<linearGradient id="grad0-18" x1="0" y1="0" x2="1" y2="0" gradientTransform="rotate(-90 0.5 0.5)">
			<stop offset="0" stop-color="#fea11b" stop-opacity="1"/>
			<stop offset="0.7" stop-color="#ffd70f" stop-opacity="1"/>
		</linearGradient>
	</defs>
	<g>
		<title>Page-1</title>
		<g id="group8511-1" transform="translate(6.89428,-34.0157)">
			<title>Azure AD Privileged Identity Management</title>
			<g id="group8512-2">
				<title>g14</title>
				<g id="shape8513-3" transform="translate(-2.59792E-13,-4.20364)">
					<title>path2</title>
					<path d="M37.04 50.71 L23.24 50.71 L23.24 55.41 A2.22244 2.2156 0 0 1 21.01 57.63 L17.66 57.63 A2.22244 2.2156
								 0 0 1 15.44 55.41 L15.44 50.73 L1.58 50.73 A1.57549 1.57063 -180 0 0 -0 52.3 L0 96.03 A1.57549 1.57063
								 -180 0 0 1.58 97.6 L12.93 97.6 L12.93 93.63 A1.6023 1.59737 0 0 1 14.52 92.04 L16.66 92.04 L16.66
								 88.97 A1.60566 1.60071 0 0 1 18.27 87.37 L22.14 87.37 A1.6023 1.59737 0 0 1 23.74 88.97 L23.74 92.04
								 L33.24 92.04 A10.901 10.8675 0 0 1 38.6 85.86 L38.6 52.29 A1.57549 1.57063 -180 0 0 37.04 50.71
								 Z" class="st1"/>
				</g>
				<g id="shape8514-7" transform="translate(10.415,-19.8339)">
					<title>path4</title>
					<path d="M17.77 95.85 A9.52666 9.49733 -180 0 0 11.56 87.28 A4.92088 4.90573 0 0 1 6.22 87.22 A8.79926 8.77216
								 -180 0 0 0 95.86 A1.59225 1.58734 -180 0 0 1.42 97.6 A1.2034 1.1997 -180 0 0 1.58 97.6 L16.19 97.6
								 A1.58219 1.57732 -180 0 0 17.78 96.03 A1.82354 1.81793 -180 0 0 17.77 95.85 Z" class="st2"/>
				</g>
				<g id="shape8515-9" transform="translate(16.7169,-23.2351)">
					<title>path6</title>
					<path d="M2.68 91.43 A4.95105 4.9358 0 0 1 -0 90.64 L2.68 97.6 L5.34 90.69 A4.97787 4.96254 0 0 1 2.68 91.43 Z"
							class="st3"/>
				</g>
				<g id="shape8516-11" transform="translate(14.3738,-29.4006)">
					<title>circle8</title>
					<ellipse cx="4.98792" cy="92.6304" rx="4.98792" ry="4.97256" class="st2"/>
				</g>
				<g id="shape8517-13" transform="translate(16.7002,-45.4512)">
					<title>rect10</title>
					<path d="M0 96.66 a0.948666 0.945744 -180 0 0 0.948644 0.945723 L4.32 97.6 a0.948666 0.945744 -180 0 0 0.948644
								 -0.945723 L5.27 87.31 a0.948666 0.945744 -180 0 0 -0.948644 -0.945723 L0.95 86.36 a0.948666 0.945744
								 -180 0 0 -0.948644 0.945723 L0 96.66 Z" class="st4"/>
				</g>
				<g id="shape8518-15" transform="translate(14.119,-2.84217E-13)">
					<title>path12</title>
					<path d="M20.02 93.71 A9.72109 9.69115 -180 1 0 30.12 81.71 C29.89 81.71 29.67 81.69 29.45 81.69 A9.72109 9.69115
								 -180 0 0 20.02 89.04 L8.8 89.04 a0.388843 0.387646 0 0 1 -0.388843 -0.387646 L8.41 84.77 a0.388843
								 0.387646 -180 0 0 -0.388843 -0.390988 L4.15 84.38 a0.388843 0.387646 -180 0 0 -0.388843 0.390988
								 L3.76 88.65 a0.388843 0.387646 0 0 1 -0.392196 0.387646 L0.39 89.04 a0.388843 0.387646 -180 0 0
								 -0.388843 0.387646 L0 93.31 a0.388843 0.387646 -180 0 0 0.388843 0.390988 L20.02 93.71 ZM29.45 86.3
								 A5.59465 5.57742 0 0 1 30.12 86.34 A5.09519 5.0795 0 0 1 29.45 96.46 A4.97787 4.96254 0 0 1 28.78
								 96.41 A5.09184 5.07616 0 0 1 29.45 86.3 Z" class="st5"/>
				</g>
			</g>
		</g>
	</g>
</svg>
